img/mastercard.svg

<svg width="48" height="32" viewBox="0 0 48 32" fill="none" xmlns="http://www.w3.org/2000/svg">
<g id="mastercard-color_large">
<rect id="card_bg" width="48" height="32" rx="4" fill="#F2F0EC"/>
<g id="mastercard">
<g id="Group" opacity="0.01">
<rect id="Rectangle" x="4.65" y="3.2" width="38.71" height="25.6" fill="white"/>
</g>
<rect id="Rectangle_2" x="18.9" y="7.66" width="10.21" height="16.68" fill="#F26122"/>
<path id="Path" d="M20 16C19.9831 12.7535 21.4577 9.67905 24 7.66C19.6503 4.23929 13.402 4.73602 9.6473 8.80101C5.89264 12.866 5.89264 19.134 9.6473 23.199C13.402 27.264 19.6503 27.7607 24 24.34C21.4577 22.3209 19.9831 19.2465 20 16Z" fill="#EA1D25"/>
<path id="Shape" fill-rule="evenodd" clip-rule="evenodd" d="M40.14 22.23V22.57H40.08V22.23H39.94V22.16H40.29V22.23H40.14ZM40.82 22.16V22.57H40.75V22.26L40.64 22.53H40.56L40.44 22.26V22.57H40.37V22.16H40.47L40.6 22.45L40.72 22.16H40.82Z" fill="#F69E1E"/>
<path id="Path_2" d="M41.16 16C41.1574 20.0593 38.8389 23.7614 35.1879 25.5358C31.5369 27.3103 27.1935 26.846 24 24.34C28.6001 20.718 29.3967 14.0543 25.78 9.45C25.2616 8.78327 24.6638 8.18218 24 7.66C27.1935 5.15399 31.5369 4.68974 35.1879 6.46417C38.8389 8.2386 41.1574 11.9407 41.16 16Z" fill="#F69E1E"/>
</g>
</g>
</svg>

<svg width="48" height="32" fill="none" xmlns="http://www.w3.org/2000/svg"><rect width="48" height="32" rx="4" fill="#F2F0EC"/><path fill="#fff" d="M4.65 3.2h38.71v25.6H4.65z" opacity=".01"/><path fill="#F26122" d="M18.9 7.66h10.21v16.68H18.9z"/><path d="M20 16a10.58 10.58 0 0 1 4-8.34 10.61 10.61 0 1 0 0 16.68A10.58 10.58 0 0 1 20 16Z" fill="#EA1D25"/><path fill-rule="evenodd" clip-rule="evenodd" d="M40.14 22.23v.34h-.06v-.34h-.14v-.07h.35v.07h-.15Zm.68-.07v.41h-.07v-.31l-.11.27h-.08l-.12-.27v.31h-.07v-.41h.1l.13.29.12-.29h.1Z" fill="#F69E1E"/><path d="M41.16 16A10.61 10.61 0 0 1 24 24.34c4.6-3.622 5.397-10.286 1.78-14.89A10.399 10.399 0 0 0 24 7.66 10.61 10.61 0 0 1 41.16 16Z" fill="#F69E1E"/></svg>
